X:1
T:Berlioz: Le roi de Thule
T:Berlioz: Le roi de Thule
L:1/8
Q:1/4=50
M:6/8
K:F
V:1 treble nm="Piano" snm="Pno."
V:1
 z3 FF=B | c c2 c2 _d | c3 =B_BG | E C2 D2 A | F2 E z3 | z3 FF=B | c c2 c2 ^c | d2 A B2 c | %8
 dBf- f_eG | B6- | B z z z2 d | c=B_A GGG | F2 _E _AGB | c2 _d _e2 c | _e3 z2 _E | _A3 _d2 d | %16
 _d2 _D F2 F | F3 E2 z | F2 A c3 | BCG A3 | G3 F3- | F6 |] %22

